Adwaita++/actions/symbolic/call-end-symbolic.svg

<svg fill="none" height="16" viewBox="0 0 16 16" width="16" xmlns="http://www.w3.org/2000/svg">
  <path d="m10 14c-.55 0-1-.446-1-1v-2l1.52-1.521c-.7076-1.837-2.1559-3.2911-3.99-4.006l-1.53 1.527h-2c-.55 0-1-.446-1-1v-3c0-.554.45-1 1-1h1c5.5228 0 10 4.4772 10 10v1c0 .554-.45 1-1 1z" fill="#444"/>
</svg>

<svg xmlns="http://www.w3.org/2000/svg" fill="none" width="16" height="16" viewBox="0 0 16 16">
 <path fill="#444" d="M10 14C9.45 14 9 13.554 9 13V11L10.52 9.479C9.8124 7.642 8.3641 6.1879 6.53 5.473L5 7H3C2.45 7 2 6.554 2 6V3C2 2.446 2.45 2 3 2H4C9.5228 2 14 6.4772 14 12V13C14 13.554 13.55 14 13 14H10Z"/>
</svg>
